X: 1726
T: Seni Herkesten Kıskanıyorum
C: Yesârî Âsım Arsoy
O: Turkey
F: http://compmusic.upf.edu/node/140
N: saba--sarki--duyek--seni_herkesten--yesari_asim_arsoy
N: makam= saba
N: form= sarki
N: usul= duyek = 8/4
M: 8/4
L: 1/16
K: C _2/4B _3/4d  
Q: 1/4=132
%%MIDI tuningsystem comma53
A2 B2 c2 {d}cd d2 c2 BA A2  | z2 cd c2 d2 e2 ef ed cB  | 
w:  Se ni  her *  *  *  kes *  ten   |  kıs *  *  ka nı *  *  yo  | 
c16  | z2 cd c2 d2 dc2d cB AG  | c8 G2 G2 c4  | \
w:  rum    |  kıs *  *  ka nı *  *  yo  |  rum   SAZ  | 
cd ed cB AG c3d cB c2  | 
w:  SAZ  | 
cd ed cB AB A3c c/B/A/B/ A2  | A2 B2 c2 {d}cd d2 c2 BA A2  | 
w:   |  Se ni  her *  *  *  kes *  ten   | 
z2 cd c2 d2 e2 ef ed cB  | c16  | z2 cd c2 d2 dc2d cB AG  | 
w:  kıs *  *  ka nı *  *  yo  |  rum    |  kıs *  *  ka nı *  *  yo  | 
c8 G2 G2 c4  | cd ed cB AG c3d cB c2  | \
w:  rum   SAZ  |  SAZ  | 
cd ed cB AG c3d cB c2  | 
w:   | 
c2 d2 e2 f2 ed c2 d4  | (3edc d2 c2 d2 ce dc d4  | \
w:  Kal *  bi mi  yak *  *  tın   |  SAZ  | 
e12 (3e2d2c2  | 
w:  ah   | 
(3cBA B14  | c2 d2 cB AB A8  | A8 dc d2 dc BA  | \
w:  *  *  *  ah   |  ya nı yo *  *  *  rum    |   | 
B2 c2 {d}cB AB A8  | 
w:  ya nı *  yo *  *  *  rum    | 
cd ed cB AG c3d cB c2  | cd ed cB AG c3d cB c2  | 
w:  SAZ  |   | 
c2 d2 e2 f2 ed c2 d4  | (3edc d2 c2 d2 ce dc d4  | \
w:  Kal *  bi mi  yak *  *  tın   |  SAZ  | 
e12 (3e2d2c2  | 
w:  ah   | 
(3cBA B14  | c2 d2 cB AB A8  | A8 dc d2 dc BA  | \
w:  *  *  *  ah   |  ya nı yo *  *  *  rum    |   | 
B2 c2 {d}cB AB A8  | 
w:  ya nı *  yo *  *  *  rum    | 
ef gf ed cB c3d cB c2  | ef gf ed cB c3f ed ef  | 
w:   |   | 
g2 g4 g2 g2 f2 e2 fg  | g16  | _7/8a2 g2 f2 e2 e2 f2 ed cB  | c16  | \
w:  *  Yüz  bin  â *  *  şı  |  kın   |  var  *  *  *  sa nı yo  |  rum    | 
z2 d2 c2 d2 c2 f2 ed cB  | 
w:  var  *  *  sa nı yo  | 
c8 G2 G2 c4  | cd ed cB AG c3d cB c2  | \
w:  rum   SAZ  |   | 
cd ed cB AG c3d cB c2  | 
w:   | 
c2 d2 e2 f2 ed c2 d4  | (3edc d2 c2 d2 ce dc d4  | \
w:  Kal *  bi mi  yak *  *  tın   |  SAZ  | 
e12 (3e2d2c2  | 
w:  ah   | 
(3cBA B14  | c2 d2 cB AB A8  | A8 dc d2 dc BA  | \
w:  *  *  *  ah   |  ya nı yo *  *  *  rum    |   | 
B2 c2 {d}cB AB A8  | 
w:  ya nı *  yo *  *  *  rum    | 
|


